src/next/cmd/sc_deletepivottable.svg

<svg height="16" width="16" xmlns="http://www.w3.org/2000/svg" xmlns:xlink="http://www.w3.org/1999/xlink"><radialGradient id="a" cx="-32" cy="9.6" gradientTransform="matrix(3.6042052 3.6042052 -18.021027 18.021027 393.81146 27.923653)" gradientUnits="userSpaceOnUse" r="5.6"><stop offset="0" stop-color="#a50606"/><stop offset="1" stop-color="#f20909"/></radialGradient><linearGradient id="b" gradientTransform="matrix(.30523238 0 0 1.3043803 6.372135 -.351998)" gradientUnits="userSpaceOnUse" x1="46.048" x2="46.048" y1="128.01709" y2="16.6203"><stop offset="0" stop-color="#c7cdd7"/><stop offset="1" stop-color="#fff"/></linearGradient><linearGradient id="c" gradientUnits="userSpaceOnUse" x1="67.266975" x2="67.266975" y1="288.20084" y2="-56"><stop offset="0"/><stop offset="1" stop-color="#fff"/></linearGradient><linearGradient id="d" gradientTransform="matrix(-1 0 0 1 154.9807 67.757363)" gradientUnits="userSpaceOnUse" x1="71.227066" x2="28.9296" y1="10.599652" y2="70.897705"><stop offset="0" stop-color="#bbd6ff"/><stop offset="1" stop-color="#0057ae"/></linearGradient><linearGradient id="e" gradientTransform="matrix(1.037037 0 0 1.2158938 -.296299 -21.49932)" gradientUnits="userSpaceOnUse" x1="8" x2="80" y1="36" y2="112"><stop offset="0" stop-color="#c8ffa5"/><stop offset="1" stop-color="#dfffcb"/></linearGradient><linearGradient id="f" gradientUnits="userSpaceOnUse" x1="67.266975" x2="67.266975" y1="288.20084" y2="-56"><stop offset="0" stop-color="#48940b" stop-opacity=".831373"/><stop offset="1" stop-color="#48940b" stop-opacity=".831373"/></linearGradient><linearGradient id="g" gradientTransform="matrix(5.4921716 0 0 -5.4921716 -467.24293 446.32459)" gradientUnits="userSpaceOnUse" x1="101.99715" x2="104" y1="83.220375" y2="57.11084"><stop offset="0" stop-color="#d4e2f3"/><stop offset="1" stop-color="#fff" stop-opacity="0"/></linearGradient><linearGradient id="h" gradientUnits="userSpaceOnUse" x1="46.825066" x2="123.00084" y1="77.669472" y2="77.669472"><stop offset="0" stop-color="#2c72c7"/><stop offset="1" stop-color="#00438a"/></linearGradient><g transform="scale(.125)"><path d="m8 8h31.743378v104.4853h-31.743378z" fill="url(#b)"/><path d="m17.4543 128h116v4h-116z" fill="#fff" opacity=".262911"/><path d="m0 8v4.707031 19.292969 4 20 4.199219 19.800781 4 24.11328 3.88672h8 32 8 .03906v-3.88672h-.03906v-24.11328h.03906v-4h-.03906v-19.800781h.03906v-4.199219h-.03906v-20h.03906v-.101562h79.96094v-27.898438h-120zm8 4.707031h32v19.292969h-32zm40 0h32v19.292969h-32zm40 0h32v19.292969h-32zm-80 23.292969h32v20h-32zm0 24.199219h32v19.800781h-32zm0 23.800781h32v24.11328h-32z" fill="url(#c)"/><path d="m8 12.5457h112v19.4543h-112z" fill="url(#e)"/><path d="m0 8v4.707031 19.292969 4h8 32 8 .03906v-.101562h79.96094v-27.898438h-120zm8 4.707031h32v19.292969h-32zm40 0h32v19.292969h-32zm40 0h32v19.292969h-32z" fill="url(#f)"/><g transform="matrix(1.0829116 0 0 1.0829116 -10.697781 -12.853721)"><path d="m103.00085 39.581578-20.000003 24 16-3.824219c4.320943 36.554361-15.129056 32.049812-32 32l3.824219-16-24 20 24 20.000001-3.824219-16c29.28178 3.57202 44.038973-8.252026 40.000003-40.000001l16 3.824219z" fill="none" stroke="url(#h)" stroke-linecap="round" stroke-linejoin="round" stroke-width="10"/><g fill-rule="evenodd"><path d="m103.00085 39.581578-20.000003 24 16-3.824219c4.320943 36.554361-15.129056 32.049812-32 32l3.824219-16-24 20 24 20.000001-3.824219-16c29.28178 3.57202 44.038973-8.252026 40.000003-40.000001l16 3.824219z" fill="url(#d)"/><path d="m103.00074 39.582031-20.000006 24 16.000003-3.824219c1.743563 14.750261-.38617 22.809901-4.65235 27.179688 3.70511-1.003936 7.387903-2.031766 11.048833-3.082031 2.28912-6.17274 2.86803-14.158062 1.60352-24.097657l16 3.824219z" fill="url(#g)"/></g><path d="m13.923828 8.4589844-1.402344 1.4023437-1.226562-1.2265625c-.019149.1340213-.03324.287191-.064453.3867188-.151899.4843578-.34156.6701512-.615235.8164062-.391962.2094684-1.118661.2237764-1.9218746.2187504l.2949218-1.2324222a.75867958.75867958 0 0 0 .015625-.0859376l-.7128906.7109376a1.0609618 1.0609618 0 0 0 0 1.5019532l1.5703125 1.570312-.1601562.160157c1.1834481-.093869 2.1986111-.436189 2.9511721-1.148438.775133-.733613 1.167592-1.7888177 1.271484-3.0742186zm-5.0312499 5.0312496-.6015625.601563a1.0609618 1.0609618 0 0 0 -.3066406.681641.75867958.75867958 0 0 0 1.0039062-.886719z" fill="#fff" fill-opacity=".870588" transform="matrix(7.3874913 0 0 7.3874913 9.878721 11.869594)"/></g><path d="m118.73111 72.334873-18.56368 18.56367-18.563668-18.56367-9.268891 9.26889 18.563672 18.563667-18.563672 18.56368 9.268891 9.26889 18.563668-18.56367 18.56368 18.56367 9.26889-9.26889-18.56367-18.56368 18.56367-18.563667z" fill="url(#a)"/></g></svg>

<?xml version="1.0" encoding="UTF-8" standalone="no"?>
<svg
   xmlns:dc="http://purl.org/dc/elements/1.1/"
   xmlns:cc="http://creativecommons.org/ns#"
   xmlns:rdf="http://www.w3.org/1999/02/22-rdf-syntax-ns#"
   xmlns:svg="http://www.w3.org/2000/svg"
   xmlns="http://www.w3.org/2000/svg"
   xmlns:xlink="http://www.w3.org/1999/xlink"
   xmlns:sodipodi="http://sodipodi.sourceforge.net/DTD/sodipodi-0.dtd"
   xmlns:inkscape="http://www.inkscape.org/namespaces/inkscape"
   height="16"
   width="16"
   version="1.1"
   id="svg75"
   sodipodi:docname="sc_deletepivottable.svg"
   inkscape:version="0.92.4 (unknown)"
   inkscape:export-filename="/home/rizmut/Dokumen/Rizmut/Github/libreoffice-style-karasa-jaga/build/images_karasa_jaga/cmd/sc_deletepivottable.png"
   inkscape:export-xdpi="96"
   inkscape:export-ydpi="96">
  <metadata
     id="metadata81">
    <rdf:RDF>
      <cc:Work
         rdf:about="">
        <dc:format>image/svg+xml</dc:format>
        <dc:type
           rdf:resource="http://purl.org/dc/dcmitype/StillImage" />
        <dc:title></dc:title>
      </cc:Work>
    </rdf:RDF>
  </metadata>
  <defs
     id="defs79">
    <radialGradient
       id="c-3"
       cx="-32"
       cy="9.6000004"
       gradientTransform="matrix(3.6042052,3.6042052,-18.021027,18.021027,393.81146,27.923653)"
       gradientUnits="userSpaceOnUse"
       r="5.5999999">
      <stop
         offset="0"
         stop-color="#a50606"
         id="stop34" />
      <stop
         offset="1"
         stop-color="#f20909"
         id="stop36" />
    </radialGradient>
  </defs>
  <sodipodi:namedview
     pagecolor="#ffffff"
     bordercolor="#666666"
     borderopacity="1"
     objecttolerance="10"
     gridtolerance="10"
     guidetolerance="10"
     inkscape:pageopacity="0"
     inkscape:pageshadow="2"
     inkscape:window-width="1366"
     inkscape:window-height="714"
     id="namedview77"
     showgrid="true"
     inkscape:zoom="14.75"
     inkscape:cx="2.3204351"
     inkscape:cy="3.7930532"
     inkscape:window-x="0"
     inkscape:window-y="28"
     inkscape:window-maximized="1"
     inkscape:current-layer="g903">
    <inkscape:grid
       type="xygrid"
       id="grid888" />
  </sodipodi:namedview>
  <linearGradient
     id="a"
     gradientTransform="matrix(0.30523238,0,0,1.3043803,6.372135,-0.351998)"
     gradientUnits="userSpaceOnUse"
     x1="46.048"
     x2="46.048"
     y1="128.01709"
     y2="16.6203">
    <stop
       offset="0"
       stop-color="#c7cdd7"
       id="stop2" />
    <stop
       offset="1"
       stop-color="#fff"
       id="stop4" />
  </linearGradient>
  <linearGradient
     id="b"
     gradientUnits="userSpaceOnUse"
     x1="67.266975"
     x2="67.266975"
     y1="288.20084"
     y2="-56">
    <stop
       offset="0"
       id="stop7" />
    <stop
       offset="1"
       stop-color="#fff"
       id="stop9" />
  </linearGradient>
  <linearGradient
     id="c"
     gradientTransform="matrix(-1,0,0,1,154.9807,67.757363)"
     gradientUnits="userSpaceOnUse"
     x1="71.227066"
     x2="28.9296"
     xlink:href="#j"
     y1="10.599652"
     y2="70.897705" />
  <linearGradient
     id="d"
     gradientTransform="matrix(1.037037,0,0,1.2158938,-0.296299,-21.49932)"
     gradientUnits="userSpaceOnUse"
     x1="8"
     x2="80"
     y1="36"
     y2="112">
    <stop
       offset="0"
       stop-color="#c8ffa5"
       id="stop13" />
    <stop
       offset="1"
       stop-color="#dfffcb"
       id="stop15" />
  </linearGradient>
  <linearGradient
     id="e"
     gradientUnits="userSpaceOnUse"
     x1="67.266975"
     x2="67.266975"
     y1="288.20084"
     y2="-56">
    <stop
       offset="0"
       stop-color="#48940b"
       stop-opacity=".831373"
       id="stop18" />
    <stop
       offset="1"
       stop-color="#48940b"
       stop-opacity=".831373"
       id="stop20" />
  </linearGradient>
  <linearGradient
     id="f"
     gradientTransform="matrix(5.4921716,0,0,-5.4921716,-467.24293,446.32459)"
     gradientUnits="userSpaceOnUse"
     x1="101.99715"
     x2="104"
     y1="83.220375"
     y2="57.11084">
    <stop
       offset="0"
       stop-color="#d4e2f3"
       id="stop23" />
    <stop
       offset="1"
       stop-color="#fff"
       stop-opacity="0"
       id="stop25" />
  </linearGradient>
  <linearGradient
     id="g"
     gradientUnits="userSpaceOnUse"
     x1="256.5"
     x2="267.74561"
     y1="68.5"
     y2="-53.567196">
    <stop
       offset="0"
       stop-color="#fff"
       id="stop28" />
    <stop
       offset="1"
       stop-color="#fff"
       stop-opacity="0"
       id="stop30" />
  </linearGradient>
  <filter
     id="h">
    <feGaussianBlur
       stdDeviation=".385"
       id="feGaussianBlur33" />
  </filter>
  <linearGradient
     id="i"
     gradientUnits="userSpaceOnUse"
     x1="246.37839"
     x2="244.9539"
     xlink:href="#j"
     y1="-14.213035"
     y2="75.696915" />
  <linearGradient
     id="j">
    <stop
       offset="0"
       stop-color="#bbd6ff"
       id="stop37" />
    <stop
       offset="1"
       stop-color="#0057ae"
       id="stop39" />
  </linearGradient>
  <linearGradient
     id="k"
     gradientUnits="userSpaceOnUse"
     x1="219.23117"
     x2="246.63911"
     xlink:href="#l"
     y1="-30.287811"
     y2="72" />
  <linearGradient
     id="l">
    <stop
       offset="0"
       stop-color="#2c72c7"
       id="stop43" />
    <stop
       offset="1"
       stop-color="#00438a"
       id="stop45" />
  </linearGradient>
  <linearGradient
     id="m"
     gradientUnits="userSpaceOnUse"
     x1="46.825066"
     x2="123.00084"
     xlink:href="#l"
     y1="77.669472"
     y2="77.669472" />
  <g
     id="g903"
     transform="scale(0.125)">
    <path
       id="path49"
       d="M 8,8 H 39.743378 V 112.4853 H 8 Z"
       style="fill:url(#a)"
       inkscape:connector-curvature="0" />
    <path
       id="path51"
       d="m 17.4543,128 h 116 v 4 h -116 z"
       inkscape:connector-curvature="0"
       style="opacity:0.26291103;fill:#ffffff" />
    <path
       id="path53"
       d="M 0,8 V 12.707031 32 36 56 60.199219 80 84 108.11328 112 h 8 32 8 0.03906 v -3.88672 H 48 V 84 h 0.03906 V 80 H 48 V 60.199219 h 0.03906 V 56 H 48 V 36 h 0.03906 V 35.898438 H 128 V 8 H 8 Z m 8,4.707031 H 40 V 32 H 8 Z m 40,0 H 80 V 32 H 48 Z m 40,0 h 32 V 32 H 88 Z M 8,36 H 40 V 56 H 8 Z M 8,60.199219 H 40 V 80 H 8 Z M 8,84 h 32 v 24.11328 H 8 Z"
       style="fill:url(#b)"
       inkscape:connector-curvature="0" />
    <path
       id="path55"
       d="M 8,12.5457 H 120 V 32 H 8 Z"
       style="fill:url(#d)"
       inkscape:connector-curvature="0" />
    <path
       id="path57"
       d="M 0,8 V 12.707031 32 36 h 8 32 8 0.03906 V 35.898438 H 128 V 8 H 8 Z m 8,4.707031 H 40 V 32 H 8 Z m 40,0 H 80 V 32 H 48 Z m 40,0 h 32 V 32 H 88 Z"
       style="fill:url(#e)"
       inkscape:connector-curvature="0" />
    <g
       id="g73"
       transform="matrix(1.0829116,0,0,1.0829116,-10.697781,-12.853721)">
      <path
         id="path65"
         d="m 103.00085,39.581578 -20.000003,24 16,-3.824219 c 4.320943,36.554361 -15.129056,32.049812 -32,32 l 3.824219,-16 -24,20 24,20.000001 -3.824219,-16 c 29.28178,3.57202 44.038973,-8.252026 40.000003,-40.000001 l 16,3.824219 z"
         style="fill:none;stroke:url(#m);stroke-width:10;stroke-linecap:round;stroke-linejoin:round"
         inkscape:connector-curvature="0" />
      <g
         id="g71"
         style="fill-rule:evenodd">
        <path
           id="path67"
           d="m 103.00085,39.581578 -20.000003,24 16,-3.824219 c 4.320943,36.554361 -15.129056,32.049812 -32,32 l 3.824219,-16 -24,20 24,20.000001 -3.824219,-16 c 29.28178,3.57202 44.038973,-8.252026 40.000003,-40.000001 l 16,3.824219 z"
           style="fill:url(#c)"
           inkscape:connector-curvature="0" />
        <path
           id="path69"
           d="m 103.00074,39.582031 -20.000006,24 16.000003,-3.824219 c 1.743563,14.750261 -0.38617,22.809901 -4.65235,27.179688 3.70511,-1.003936 7.387903,-2.031766 11.048833,-3.082031 2.28912,-6.17274 2.86803,-14.158062 1.60352,-24.097657 l 16,3.824219 z"
           style="fill:url(#f)"
           inkscape:connector-curvature="0" />
      </g>
      <path
         style="fill:#ffffff;fill-opacity:0.87058824;stroke:none;stroke-width:1.35363948;stroke-linecap:round;stroke-linejoin:round"
         d="M 13.923828 8.4589844 L 12.521484 9.8613281 L 11.294922 8.6347656 C 11.275773 8.7687869 11.261682 8.9219566 11.230469 9.0214844 C 11.07857 9.5058422 10.888909 9.6916356 10.615234 9.8378906 C 10.223272 10.047359 9.496573 10.061667 8.6933594 10.056641 L 8.9882812 8.8242188 A 0.75867958 0.75867958 0 0 0 9.0039062 8.7382812 L 8.2910156 9.4492188 A 1.0609618 1.0609618 0 0 0 8.2910156 10.951172 L 9.8613281 12.521484 L 9.7011719 12.681641 C 10.88462 12.587772 11.899783 12.245452 12.652344 11.533203 C 13.427477 10.79959 13.819936 9.7443853 13.923828 8.4589844 z M 8.8925781 13.490234 L 8.2910156 14.091797 A 1.0609618 1.0609618 0 0 0 7.984375 14.773438 A 0.75867958 0.75867958 0 0 0 8.9882812 13.886719 L 8.8925781 13.490234 z "
         transform="matrix(7.3874913,0,0,7.3874913,9.8787205,11.869594)"
         id="path951" />
    </g>
    <path
       inkscape:connector-curvature="0"
       style="fill:url(#c-3);stroke-width:1"
       d="M 118.73111,72.334873 100.16743,90.898543 81.603762,72.334873 72.334871,81.603763 90.898543,100.16743 72.334871,118.73111 81.603762,128 100.16743,109.43633 118.73111,128 128,118.73111 109.43633,100.16743 128,81.603763 Z"
       id="path65-7" />
  </g>
</svg>
